Numix-Circle/48x48/apps/chrome-cijncchffkmlnfdbnkkfclcbnjcoegjc-Default.svg

<?xml version="1.0" encoding="UTF-8" standalone="no"?>
<svg
   xmlns:dc="http://purl.org/dc/elements/1.1/"
   xmlns:cc="http://creativecommons.org/ns#"
   xmlns:rdf="http://www.w3.org/1999/02/22-rdf-syntax-ns#"
   xmlns:svg="http://www.w3.org/2000/svg"
   xmlns="http://www.w3.org/2000/svg"
   xmlns:xlink="http://www.w3.org/1999/xlink"
   xmlns:sodipodi="http://sodipodi.sourceforge.net/DTD/sodipodi-0.dtd"
   xmlns:inkscape="http://www.inkscape.org/namespaces/inkscape"
   viewBox="0 0 48 48"
   id="svg2"
   version="1.1"
   inkscape:version="0.91 r13725"
   width="100%"
   height="100%"
   sodipodi:docname="chrome-cijncchffkmlnfdbnkkfclcbnjcoegjc-Default1.svg">
  <metadata
     id="metadata52">
    <rdf:RDF>
      <cc:Work
         rdf:about="">
        <dc:format>image/svg+xml</dc:format>
        <dc:type
           rdf:resource="http://purl.org/dc/dcmitype/StillImage" />
        <dc:title></dc:title>
      </cc:Work>
    </rdf:RDF>
  </metadata>
  <sodipodi:namedview
     pagecolor="#ffffff"
     bordercolor="#666666"
     borderopacity="1"
     objecttolerance="10"
     gridtolerance="10"
     guidetolerance="10"
     inkscape:pageopacity="0"
     inkscape:pageshadow="2"
     inkscape:window-width="1280"
     inkscape:window-height="998"
     id="namedview50"
     showgrid="true"
     inkscape:zoom="3.4766083"
     inkscape:cx="46.345374"
     inkscape:cy="-7.3523736"
     inkscape:window-x="0"
     inkscape:window-y="0"
     inkscape:window-maximized="1"
     inkscape:current-layer="svg2"
     showguides="false">
    <inkscape:grid
       type="xygrid"
       id="grid3816" />
  </sodipodi:namedview>
  <defs
     id="defs4">
    <linearGradient
       inkscape:collect="always"
       id="linearGradient4850">
      <stop
         style="stop-color:#5b5b5b;stop-opacity:1;"
         offset="0"
         id="stop4852" />
      <stop
         style="stop-color:#656565;stop-opacity:1"
         offset="1"
         id="stop4854" />
    </linearGradient>
    <linearGradient
       id="linearGradient3808">
      <stop
         id="stop4844"
         offset="0"
         style="stop-color:#5697a9;stop-opacity:1;" />
      <stop
         id="stop4846"
         offset="1"
         style="stop-color:#64a0b0;stop-opacity:1;" />
    </linearGradient>
    <linearGradient
       id="linearGradient4848">
      <stop
         style="stop-color:#5697a9;stop-opacity:1;"
         offset="0"
         id="stop3810" />
      <stop
         style="stop-color:#64a0b0;stop-opacity:1;"
         offset="1"
         id="stop3812" />
    </linearGradient>
    <clipPath
       id="clipPath6">
      <g
         transform="translate(0,-1004.3622)"
         id="g8">
        <path
           d="m -24 13 c 0 1.105 -0.672 2 -1.5 2 -0.828 0 -1.5 -0.895 -1.5 -2 0 -1.105 0.672 -2 1.5 -2 0.828 0 1.5 0.895 1.5 2 z"
           transform="matrix(15.333333,0,0,11.5,414.99999,878.8622)"
           fill="#1890d0"
           id="path10" />
      </g>
    </clipPath>
    <clipPath
       id="clipPath12">
      <g
         transform="translate(0,-1004.3622)"
         id="g14">
        <path
           d="m -24 13 c 0 1.105 -0.672 2 -1.5 2 -0.828 0 -1.5 -0.895 -1.5 -2 0 -1.105 0.672 -2 1.5 -2 0.828 0 1.5 0.895 1.5 2 z"
           transform="matrix(15.333333,0,0,11.5,414.99999,878.8622)"
           fill="#1890d0"
           id="path16" />
      </g>
    </clipPath>
    <linearGradient
       id="linearGradient3094"
       gradientUnits="userSpaceOnUse"
       gradientTransform="matrix(1.115973,0,0,1.115973,-3.038375,-2.730839)"
       x1="7.781"
       x2="43.44">
      <stop
         stop-color="#e5e5e5"
         stop-opacity="1"
         id="stop19" />
      <stop
         offset="0.5"
         stop-color="#f9f9f9"
         stop-opacity="1"
         id="stop21" />
      <stop
         offset="1"
         stop-color="#e5e5e5"
         stop-opacity="1"
         id="stop23" />
    </linearGradient>
    <linearGradient
       id="linearGradient3108"
       gradientUnits="userSpaceOnUse"
       gradientTransform="matrix(0,-1,1,0,-1.5e-6,47.999998)"
       x1="1"
       x2="47">
      <stop
         stop-color="#ffab09"
         stop-opacity="1"
         id="stop26" />
      <stop
         offset="1"
         stop-color="#ffb31d"
         stop-opacity="1"
         id="stop28" />
    </linearGradient>
    <linearGradient
       inkscape:collect="always"
       xlink:href="#linearGradient4850"
       id="linearGradient4856"
       x1="0.99804688"
       y1="23.998047"
       x2="47.003906"
       y2="23.998047"
       gradientUnits="userSpaceOnUse"
       gradientTransform="matrix(0,-1,1,0,0.00292944,47.999023)" />
    <clipPath
       id="clipPath-301376108">
      <g
         transform="translate(0,-1004.3622)"
         id="g12">
        <path
           style="fill:#1890d0"
           inkscape:connector-curvature="0"
           d="m -24,13 c 0,1.105 -0.672,2 -1.5,2 -0.828,0 -1.5,-0.895 -1.5,-2 0,-1.105 0.672,-2 1.5,-2 0.828,0 1.5,0.895 1.5,2 z"
           transform="matrix(15.333333,0,0,11.5,414.99999,878.8622)"
           id="path14" />
      </g>
    </clipPath>
    <clipPath
       id="clipPath-307844360">
      <g
         transform="translate(0,-1004.3622)"
         id="g17">
        <path
           style="fill:#1890d0"
           inkscape:connector-curvature="0"
           d="m -24,13 c 0,1.105 -0.672,2 -1.5,2 -0.828,0 -1.5,-0.895 -1.5,-2 0,-1.105 0.672,-2 1.5,-2 0.828,0 1.5,0.895 1.5,2 z"
           transform="matrix(15.333333,0,0,11.5,414.99999,878.8622)"
           id="path19" />
      </g>
    </clipPath>
    <radialGradient
       id="radial0"
       gradientUnits="userSpaceOnUse"
       cx="6.7729998"
       cy="5.927"
       r="0.56400001"
       gradientTransform="matrix(3.543307,0,0,3.543307,1.47638e-7,3.77575e-4)">
      <stop
         stop-color="#8eb0c7"
         stop-opacity="1"
         id="stop22" />
      <stop
         offset="1"
         stop-color="#8eb0c7"
         stop-opacity="0"
         id="stop24" />
    </radialGradient>
    <radialGradient
       id="radial1"
       gradientUnits="userSpaceOnUse"
       cx="6"
       cy="17.292"
       r="1"
       gradientTransform="translate(18,8.707971)"
       xlink:href="#radial0" />
    <radialGradient
       id="radialGradient3447"
       gradientUnits="userSpaceOnUse"
       cx="6.7729998"
       cy="5.927"
       r="0.56400001"
       gradientTransform="matrix(3.543307,0,0,3.543307,1.47638e-7,3.77575e-4)">
      <stop
         stop-color="#8eb0c7"
         stop-opacity="1"
         id="stop3449" />
      <stop
         offset="1"
         stop-color="#8eb0c7"
         stop-opacity="0"
         id="stop3451" />
    </radialGradient>
    <radialGradient
       r="0.56400001"
       cy="5.927"
       cx="6.7729998"
       gradientTransform="matrix(3.543307,0,0,3.543307,1.47638e-7,3.77575e-4)"
       gradientUnits="userSpaceOnUse"
       id="radialGradient3475"
       xlink:href="#radial0"
       inkscape:collect="always" />
  </defs>
  <g
     id="g30">
    <path
       d="m 36.31 5 c 5.859 4.062 9.688 10.831 9.688 18.5 c 0 12.426 -10.07 22.5 -22.5 22.5 c -7.669 0 -14.438 -3.828 -18.5 -9.688 c 1.037 1.822 2.306 3.499 3.781 4.969 c 4.085 3.712 9.514 5.969 15.469 5.969 c 12.703 0 23 -10.298 23 -23 c 0 -5.954 -2.256 -11.384 -5.969 -15.469 c -1.469 -1.475 -3.147 -2.744 -4.969 -3.781 z m 4.969 3.781 c 3.854 4.113 6.219 9.637 6.219 15.719 c 0 12.703 -10.297 23 -23 23 c -6.081 0 -11.606 -2.364 -15.719 -6.219 c 4.16 4.144 9.883 6.719 16.219 6.719 c 12.703 0 23 -10.298 23 -23 c 0 -6.335 -2.575 -12.06 -6.719 -16.219 z"
       opacity="0.05"
       id="path32" />
    <path
       d="m 41.28 8.781 c 3.712 4.085 5.969 9.514 5.969 15.469 c 0 12.703 -10.297 23 -23 23 c -5.954 0 -11.384 -2.256 -15.469 -5.969 c 4.113 3.854 9.637 6.219 15.719 6.219 c 12.703 0 23 -10.298 23 -23 c 0 -6.081 -2.364 -11.606 -6.219 -15.719 z"
       opacity="0.1"
       id="path34" />
    <path
       d="m 31.25 2.375 c 8.615 3.154 14.75 11.417 14.75 21.13 c 0 12.426 -10.07 22.5 -22.5 22.5 c -9.708 0 -17.971 -6.135 -21.12 -14.75 a 23 23 0 0 0 44.875 -7 a 23 23 0 0 0 -16 -21.875 z"
       opacity="0.2"
       id="path36" />
  </g>
  <path
     style="fill:url(#linearGradient4856);fill-opacity:1"
     d="m 1.0029294,23.999023 c 0,7.939 4.01,14.929547 10.1249996,19.060547 0.0094,-0.0028 0.01981,0.0018 0.0293,0 -7.22e-4,5.17e-4 -0.0012,0.0014 -0.002,0.002 3.667,2.471 8.08975,3.939454 12.84375,3.939454 12.703,0 23,-10.297001 23,-23.000001 0,-1.896 -0.222297,-3.737 -0.654297,-5.5 0.0013,-0.0019 0.0026,-0.004 0.0039,-0.0059 -2.169,-8.8369996 -9.45625,-15.6704996 -18.53125,-17.1874996 -0.0019,0.00208 -0.004,0.00377 -0.0059,0.00586 0.0012,-0.00205 0.0027,-0.00381 0.0039,-0.00586 -1.242,-0.208 -2.5105,-0.31249996 -3.8125,-0.31249996 -12.188,0 -22.1494996,9.47974956 -22.9374996,21.46874956 l 0,0.0039 c 6.6e-4,2.8e-5 0.00129,-2.8e-5 0.00195,0 -0.033,0.507 -0.0625,1.01625 -0.0625,1.53125 l -0.00195,0 z"
     id="path38"
     inkscape:connector-curvature="0" />
  <path
     style="opacity:0.1;fill:#000000;fill-opacity:1;fill-rule:nonzero;stroke:none;stroke-width:30.89999962;stroke-linejoin:round;stroke-miterlimit:4;stroke-dasharray:none;stroke-opacity:1"
     d="M 24.001953 0.99609375 C 22.282835 0.99609375 20.611031 1.1892341 19 1.546875 L 19 46.443359 C 20.610356 46.804403 22.281308 47.001953 23.998047 47.001953 C 26.43998 47.001953 28.791942 46.617074 31 45.912109 L 31 2.0820312 C 29.968303 1.7526304 28.905338 1.4906224 27.816406 1.3085938 C 27.816406 1.3085938 27.814453 1.3085938 27.814453 1.3085938 C 26.572453 1.1005938 25.303953 0.99609375 24.001953 0.99609375 z "
     id="path4898" />
  <g
     id="g46">
    <path
       d="m 40.03 7.531 c 3.712 4.084 5.969 9.514 5.969 15.469 0 12.703 -10.297 23 -23 23 c -5.954 0 -11.384 -2.256 -15.469 -5.969 4.178 4.291 10.01 6.969 16.469 6.969 c 12.703 0 23 -10.298 23 -23 0 -6.462 -2.677 -12.291 -6.969 -16.469 z"
       opacity="0.1"
       id="path48" />
  </g>
  <g
     id="g4890">
    <path
       id="rect4858"
       d="M 24 0.99609375 L 24 47.001953 C 25.016998 47.001868 26.017901 46.928815 27 46.800781 L 27 1.2070312 C 26.017394 1.0791452 25.022341 0.99609375 24.001953 0.99609375 C 24.001298 0.99609375 24.000655 0.9960937 24 0.99609375 z "
       style="opacity:1;fill:#7de5a8;fill-opacity:1;fill-rule:nonzero;stroke:none;stroke-width:30.89999962;stroke-linejoin:round;stroke-miterlimit:4;stroke-dasharray:none;stroke-opacity:1" />
    <path
       id="rect4860"
       d="M 27 1.2070312 L 27 46.800781 C 28.022629 46.667464 29.024172 46.46816 30 46.205078 L 30 1.796875 C 29.284168 1.603736 28.557927 1.4325482 27.816406 1.3085938 C 27.816406 1.3085938 27.814453 1.3085938 27.814453 1.3085938 C 27.545818 1.263605 27.271185 1.242326 27 1.2070312 z "
       style="opacity:1;fill:#4c9cff;fill-opacity:1;fill-rule:nonzero;stroke:none;stroke-width:30.89999962;stroke-linejoin:round;stroke-miterlimit:4;stroke-dasharray:none;stroke-opacity:1" />
    <path
       id="rect4874"
       d="M 21 1.1953125 C 19.977041 1.3287883 18.975971 1.5295968 18 1.7929688 L 18 46.183594 C 18.976759 46.449654 19.97663 46.655716 21 46.791016 L 21 1.1953125 z "
       style="opacity:1;fill:#ff2f6e;fill-opacity:1;fill-rule:nonzero;stroke:none;stroke-width:30.89999962;stroke-linejoin:round;stroke-miterlimit:4;stroke-dasharray:none;stroke-opacity:1" />
    <path
       id="rect4876"
       d="M 24 0.99609375 C 22.982361 0.99617885 21.982545 1.06711 21 1.1953125 L 21 46.791016 C 21.982935 46.92097 22.980606 47.001953 23.998047 47.001953 C 23.998701 47.001953 23.999345 47.001953 24 47.001953 L 24 0.99609375 z "
       style="opacity:1;fill:#ffd468;fill-opacity:1;fill-rule:nonzero;stroke:none;stroke-width:30.89999962;stroke-linejoin:round;stroke-miterlimit:4;stroke-dasharray:none;stroke-opacity:1" />
  </g>
  <path
     id="path81"
     d="m 38,24 c 0,7.73 -6.27,14 -14,14 -7.73,0 -14,-6.27 -14,-14 0,-7.73 6.27,-14 14,-14 7.73,0 14,6.27 14,14 m 0,0"
     inkscape:connector-curvature="0"
     style="fill:#e5d6c8;fill-opacity:1;fill-rule:nonzero;stroke:none" />
  <path
     id="path83"
     d="m 35,24 c 0,6.074 -4.926,11 -11,11 -6.074,0 -11,-4.926 -11,-11 0,-6.074 4.926,-11 11,-11 6.074,0 11,4.926 11,11 m 0,0"
     inkscape:connector-curvature="0"
     style="fill:#f9f9f9;fill-opacity:1;fill-rule:nonzero;stroke:none" />
  <path
     id="path85"
     d="m 32,24 c 0,4.418 -3.582,8 -8,8 -4.418,0 -8,-3.582 -8,-8 0,-4.418 3.582,-8 8,-8 4.418,0 8,3.582 8,8 m 0,0"
     inkscape:connector-curvature="0"
     style="fill:#84b295;fill-opacity:1;fill-rule:nonzero;stroke:none" />
  <path
     id="path87"
     d="m 30,24 c 0,3.313 -2.688,6 -6,6 -3.313,0 -6,-2.688 -6,-6 0,-3.313 2.688,-6 6,-6 3.313,0 6,2.688 6,6 m 0,0"
     inkscape:connector-curvature="0"
     style="fill:#355362;fill-opacity:1;fill-rule:nonzero;stroke:none" />
  <path
     id="path89"
     d="m 26,21 c 0,1.105 -0.895,2 -2,2 -1.105,0 -2,-0.895 -2,-2 0,-1.105 0.895,-2 2,-2 1.105,0 2,0.895 2,2 m 0,0"
     inkscape:connector-curvature="0"
     style="fill:url(#radialGradient3475);fill-rule:nonzero;stroke:none" />
  <path
     id="path91"
     d="m 25,26 c 0,0.551 -0.449,1 -1,1 -0.551,0 -1,-0.449 -1,-1 0,-0.551 0.449,-1 1,-1 0.551,0 1,0.449 1,1 m 0,0"
     inkscape:connector-curvature="0"
     style="fill:url(#radial1);fill-rule:nonzero;stroke:none" />
</svg>

<svg xmlns="http://www.w3.org/2000/svg" xmlns:xlink="http://www.w3.org/1999/xlink" viewBox="0 0 48 48">
 <defs>
  <linearGradient id="linearGradient4856" x1="0.998" x2="47" gradientUnits="userSpaceOnUse" gradientTransform="matrix(0,-1,1,0,0.00292944,47.999023)">
   <stop style="stop-color:#5b5b5b;stop-opacity:1"/>
   <stop offset="1" style="stop-color:#656565;stop-opacity:1"/>
  </linearGradient>
  <radialGradient id="radial0" gradientUnits="userSpaceOnUse" cx="6.773" cy="5.927" r="0.564" gradientTransform="matrix(3.543307,0,0,3.543307,1.47638e-7,3.77575e-4)">
   <stop style="stop-color:#8eb0c7;stop-opacity:1"/>
   <stop offset="1" style="stop-color:#8eb0c7;stop-opacity:0"/>
  </radialGradient>
  <radialGradient id="radial1" gradientUnits="userSpaceOnUse" cx="6" cy="17.292" r="1" gradientTransform="translate(18,8.707971)" xlink:href="#radial0"/>
  <radialGradient r="0.564" cy="5.927" cx="6.773" gradientTransform="matrix(3.543307,0,0,3.543307,1.47638e-7,3.77575e-4)" gradientUnits="userSpaceOnUse" id="radialGradient3475" xlink:href="#radial0"/>
 </defs>
 <g>
  <path d="m 36.31 5 c 5.859 4.062 9.688 10.831 9.688 18.5 c 0 12.426 -10.07 22.5 -22.5 22.5 c -7.669 0 -14.438 -3.828 -18.5 -9.688 c 1.037 1.822 2.306 3.499 3.781 4.969 c 4.085 3.712 9.514 5.969 15.469 5.969 c 12.703 0 23 -10.298 23 -23 c 0 -5.954 -2.256 -11.384 -5.969 -15.469 c -1.469 -1.475 -3.147 -2.744 -4.969 -3.781 z m 4.969 3.781 c 3.854 4.113 6.219 9.637 6.219 15.719 c 0 12.703 -10.297 23 -23 23 c -6.081 0 -11.606 -2.364 -15.719 -6.219 c 4.16 4.144 9.883 6.719 16.219 6.719 c 12.703 0 23 -10.298 23 -23 c 0 -6.335 -2.575 -12.06 -6.719 -16.219 z" style="opacity:0.05"/>
  <path d="m 41.28 8.781 c 3.712 4.085 5.969 9.514 5.969 15.469 c 0 12.703 -10.297 23 -23 23 c -5.954 0 -11.384 -2.256 -15.469 -5.969 c 4.113 3.854 9.637 6.219 15.719 6.219 c 12.703 0 23 -10.298 23 -23 c 0 -6.081 -2.364 -11.606 -6.219 -15.719 z" style="opacity:0.1"/>
  <path d="m 31.25 2.375 c 8.615 3.154 14.75 11.417 14.75 21.13 c 0 12.426 -10.07 22.5 -22.5 22.5 c -9.708 0 -17.971 -6.135 -21.12 -14.75 a 23 23 0 0 0 44.875 -7 a 23 23 0 0 0 -16 -21.875 z" style="opacity:0.2"/>
 </g>
 <path d="m 1 23.999 c 0 7.939 4.01 14.93 10.125 19.06 0.009 -0.003 0.02 0.002 0.029 0 0 0 0 0 -0.002 0.002 3.667 2.471 8.09 3.939 12.844 3.939 12.703 0 23 -10.297 23 -23 0 -1.896 -0.222 -3.737 -0.654 -5.5 0 -0.002 0.003 -0.004 0.004 -0.006 -2.169 -8.837 -9.456 -15.67 -18.531 -17.19 -0.002 0.002 -0.004 0.004 -0.006 0.006 0 -0.002 0.003 -0.004 0.004 -0.006 -1.242 -0.208 -2.511 -0.312 -3.813 -0.312 -12.188 0 -22.15 9.48 -22.937 21.469 l 0 0.004 c 0 0 0 0 0.002 0 -0.033 0.507 -0.063 1.016 -0.063 1.531 l -0.002 0 z" style="fill:url(#linearGradient4856);fill-opacity:1"/>
 <path d="m 24 0.996 c -1.719 0 -3.391 0.193 -5 0.551 l 0 10.818 c -4.725 2.249 -8 7.05 -8 12.635 c 0 5.58 3.275 10.386 8 12.635 l 0 8.809 c 1.61 0.361 3.281 0.559 4.998 0.559 c 2.442 0 4.794 -0.385 7 -1.09 l 0 -8.277 c 4.725 -2.249 8 -7.05 8 -12.635 c 0 -5.58 -3.275 -10.386 -8 -12.635 l 0 -10.283 c -1.032 -0.329 -2.095 -0.591 -3.184 -0.773 l -0.002 0 c -1.242 -0.208 -2.511 -0.313 -3.813 -0.313 z" style="fill:#000;opacity:0.1;fill-opacity:1;stroke:none;fill-rule:nonzero"/>
 <g>
  <path d="m 40.03 7.531 c 3.712 4.084 5.969 9.514 5.969 15.469 0 12.703 -10.297 23 -23 23 c -5.954 0 -11.384 -2.256 -15.469 -5.969 4.178 4.291 10.01 6.969 16.469 6.969 c 12.703 0 23 -10.298 23 -23 0 -6.462 -2.677 -12.291 -6.969 -16.469 z" style="opacity:0.1"/>
 </g>
 <g>
  <g>
   <path d="m 24 0.996 l 0 46.01 c 1.017 0 2.02 -0.073 3 -0.201 l 0 -45.594 c -0.983 -0.128 -1.978 -0.211 -2.998 -0.211 c 0 0 0 0 -0.002 0 z" style="fill:#7de5a8;opacity:1;fill-opacity:1;stroke:none;fill-rule:nonzero"/>
   <path d="m 27 1.207 l 0 45.594 c 1.023 -0.133 2.024 -0.333 3 -0.596 l 0 -44.41 c -0.716 -0.193 -1.442 -0.364 -2.184 -0.488 c 0 0 -0.002 0 -0.002 0 c -0.269 -0.045 -0.543 -0.066 -0.814 -0.102 z" style="fill:#4c9cff;opacity:1;fill-opacity:1;stroke:none;fill-rule:nonzero"/>
   <path d="m 21 1.195 c -1.023 0.133 -2.024 0.334 -3 0.598 l 0 44.39 c 0.977 0.266 1.977 0.472 3 0.607 l 0 -45.596 z" style="fill:#ff2f6e;opacity:1;fill-opacity:1;stroke:none;fill-rule:nonzero"/>
   <path d="m 24 0.996 c -1.018 0 -2.02 0.071 -3 0.199 l 0 45.596 c 0.983 0.13 1.981 0.211 2.998 0.211 c 0 0 0 0 0.002 0 l 0 -46.01 z" style="fill:#ffd468;opacity:1;fill-opacity:1;stroke:none;fill-rule:nonzero"/>
  </g>
  <path d="m 38 24 c 0 7.73 -6.27 14 -14 14 -7.73 0 -14 -6.27 -14 -14 0 -7.73 6.27 -14 14 -14 7.73 0 14 6.27 14 14 m 0 0" style="fill:#e5d6c8;fill-opacity:1;stroke:none;fill-rule:nonzero"/>
  <path d="m 35 24 c 0 6.074 -4.926 11 -11 11 -6.074 0 -11 -4.926 -11 -11 0 -6.074 4.926 -11 11 -11 6.074 0 11 4.926 11 11 m 0 0" style="fill:#f9f9f9;fill-opacity:1;stroke:none;fill-rule:nonzero"/>
  <path d="m 32 24 c 0 4.418 -3.582 8 -8 8 -4.418 0 -8 -3.582 -8 -8 0 -4.418 3.582 -8 8 -8 4.418 0 8 3.582 8 8 m 0 0" style="fill:#84b295;fill-opacity:1;stroke:none;fill-rule:nonzero"/>
  <path d="m 30 24 c 0 3.313 -2.688 6 -6 6 -3.313 0 -6 -2.688 -6 -6 0 -3.313 2.688 -6 6 -6 3.313 0 6 2.688 6 6 m 0 0" style="fill:#355362;fill-opacity:1;stroke:none;fill-rule:nonzero"/>
  <path d="m 26 21 c 0 1.105 -0.895 2 -2 2 -1.105 0 -2 -0.895 -2 -2 0 -1.105 0.895 -2 2 -2 1.105 0 2 0.895 2 2 m 0 0" style="fill:url(#radialGradient3475);stroke:none;fill-rule:nonzero"/>
  <path d="m 25 26 c 0 0.551 -0.449 1 -1 1 -0.551 0 -1 -0.449 -1 -1 0 -0.551 0.449 -1 1 -1 0.551 0 1 0.449 1 1 m 0 0" style="fill:url(#radial1);stroke:none;fill-rule:nonzero"/>
 </g>
</svg>
